icons/linear-ele-office-doc-document-checked.svg

<svg xmlns="http://www.w3.org/2000/svg" width="32px" height="32px" viewBox="0 0 32 32" version="1.1">
    <title>linear-ele-office-doc-document-checked</title>
    <g id="linear-ele-office-doc-document-checked" stroke-width="1" fill-rule="evenodd">
        <path d="M20,2 C20.2652165,2 20.5195704,2.10535684 20.7071068,2.29289322 L27.7071068,9.29289322 C27.8946432,9.4804296 28,9.73478351 28,10 L28,29 C28,29.5522847 27.5522847,30 27,30 L5,30 C4.44771525,30 4,29.5522847 4,29 L4,3 C4,2.44771525 4.44771525,2 5,2 L20,2 Z M18,4 L6,4 L6,28 L26,28 L26,12 L19,12 C18.4477153,12 18,11.5522847 18,11 L18,4 Z M21.2071068,15.2928932 C21.5976311,15.6834175 21.5976311,16.3165825 21.2071068,16.7071068 L15.7071068,22.2071068 C15.3165825,22.5976311 14.6834175,22.5976311 14.2928932,22.2071068 L10.7928932,18.7071068 C10.4023689,18.3165825 10.4023689,17.6834175 10.7928932,17.2928932 C11.1834175,16.9023689 11.8165825,16.9023689 12.2071068,17.2928932 L15,20.085 L19.7928932,15.2928932 C20.1834175,14.9023689 20.8165825,14.9023689 21.2071068,15.2928932 Z M20,4.415 L20,10 L25.585,10 L20,4.415 Z" id="&#24418;&#29366;" fill-rule="nonzero" />
    </g>
</svg>

<svg xmlns="http://www.w3.org/2000/svg" viewBox="0 0 32 32"><path fill="currentColor" d="M20 2a1 1 0 0 1 .707.293l7 7A1 1 0 0 1 28 10v19a1 1 0 0 1-1 1H5a1 1 0 0 1-1-1V3a1 1 0 0 1 1-1zm-2 2H6v24h20V12h-7a1 1 0 0 1-1-1zm3.207 11.293a1 1 0 0 1 0 1.414l-5.5 5.5a1 1 0 0 1-1.414 0l-3.5-3.5a1 1 0 0 1 1.414-1.414L15 20.085l4.793-4.792a1 1 0 0 1 1.414 0M20 4.415V10h5.585z"/></svg>
